!!!OTL: Balujun shi zijiren
!!!ARE: Asia, China,ÿHenan Hebi
!! IV, 133
!!!SCT: C1949
!!!YEM: Copyright 1995, estate of Helmut Schaffrath.
**kern
*ICvox
*Ivox
*M2/4
*k[b-e-a-]
*E-:
{8cc
16b-
16cc
4ee-
=1
8.g
16f
8e-
8c
=2
8cc
16b-
16cc
8dd
8cc
=3
2b-}
=4
{8cc
16b-
16cc
8ee-
8ee-
=5
8.g
16cc
8b-
8a-
=6
8.g
16f
8e-
16r
16f
=7
8c
8a-
8g
16g
16f
=8
2e-}
=9
{8.ff
16dd
8cc
8b-
=10
8g
16g
16f
4g
=11
8.ff
16dd
8cc
8b-
=12
8g
16g
16f
4g}
=13
{8.f
16g
8b-
16ff
16dd
=14
8cc
4.cc}
=15
{8.b-
16cc
8ee-
8ff
=16
8.dd
16cc
8b-
8g
=17
8c
8a-
8g
8f
=18
4.e-
8f
=19
8.c
16a-
8g
8f
=20
2e-}
==
!!!AGN: Xiaodiao, Dadulu diao
!!!AMT: simple duple
!!!AIN: vox
!!!EED: Helmut Schaffrath
!!!EEV: 1.0
*-
